status/symbolic/network-wired-symbolic.svg

<?xml version="1.0" encoding="UTF-8" standalone="no"?>
<!-- Created with Inkscape (http://www.inkscape.org/) -->

<svg
   xmlns:dc="http://purl.org/dc/elements/1.1/"
   xmlns:cc="http://creativecommons.org/ns#"
   xmlns:rdf="http://www.w3.org/1999/02/22-rdf-syntax-ns#"
   xmlns:svg="http://www.w3.org/2000/svg"
   xmlns="http://www.w3.org/2000/svg"
   xmlns:inkscape="http://www.inkscape.org/namespaces/inkscape"
   version="1.1"
   width="16"
   height="16"
   id="svg3778">
  <defs
     id="defs3780" />
  <metadata
     id="metadata3783">
    <rdf:RDF>
      <cc:Work
         rdf:about="">
        <dc:format>image/svg+xml</dc:format>
        <dc:type
           rdf:resource="http://purl.org/dc/dcmitype/StillImage" />
        <dc:title />
      </cc:Work>
    </rdf:RDF>
  </metadata>
  <g
     transform="translate(23.134426,0)"
     id="layer1">
    <path
       d="M 19.015625,15 18.984375,16 21,16 21,15 z M 15,5 l 0,11 1.984375,0 0.03125,-11 z M 0.46875,8 0,9 3,12 3,16 4,16 4,12 7,9 6.625,8 z M 1.375,9 3,9 3,10.625 z M 4,9 5.625,9 4,10.625 z m 7.015625,0 -0.03125,7 L 13,16 13,9 z M 7,13 l 0,3 2,0 0,-3 z"
       inkscape:connector-curvature="0"
       id="path3883"
       style="color:#bebebe;fill:#bebebe;fill-opacity:1;fill-rule:nonzero;stroke:none;stroke-width:1;marker:none;visibility:visible;display:inline;overflow:visible;enable-background:accumulate" />
  </g>
  <path
     d="m 5,3 0,4 2,0 0,1 -6,0 0,1 3,0 0,1 -2,0 0,4 5,0 0,-4 -2,0 0,-1 5,0 0,1 -2,0 0,4 5,0 0,-4 -2,0 0,-1 3,0 L 14,8 8,8 8,7 10,7 10,3 5,3 z M 6,4 9,4 9,6 6,6 6,4 z m -3,7 3,0 0,2 -3,0 0,-2 z m 6,0 3,0 0,2 -3,0 0,-2 z"
     inkscape:connector-curvature="0"
     id="rect2986"
     style="color:#000000;fill:#b3bcba;fill-opacity:1;fill-rule:nonzero;stroke:none;stroke-width:1;marker:none;visibility:visible;display:inline;overflow:visible;enable-background:accumulate" />
</svg>

<?xml version="1.0" encoding="UTF-8" standalone="no"?>
<!-- Created with Inkscape (http://www.inkscape.org/) -->

<svg
   xmlns:dc="http://purl.org/dc/elements/1.1/"
   xmlns:cc="http://creativecommons.org/ns#"
   xmlns:rdf="http://www.w3.org/1999/02/22-rdf-syntax-ns#"
   xmlns:svg="http://www.w3.org/2000/svg"
   xmlns="http://www.w3.org/2000/svg"
   xmlns:sodipodi="http://sodipodi.sourceforge.net/DTD/sodipodi-0.dtd"
   xmlns:inkscape="http://www.inkscape.org/namespaces/inkscape"
   version="1.1"
   width="16"
   height="16"
   id="svg3778"
   inkscape:version="0.48.4 r9939"
   sodipodi:docname="network-wired-symbolic.svg">
  <sodipodi:namedview
     pagecolor="#ffffff"
     bordercolor="#666666"
     borderopacity="1"
     objecttolerance="10"
     gridtolerance="10"
     guidetolerance="10"
     inkscape:pageopacity="0"
     inkscape:pageshadow="2"
     inkscape:window-width="1280"
     inkscape:window-height="747"
     id="namedview7"
     showgrid="true"
     inkscape:zoom="33.5625"
     inkscape:cx="10.5"
     inkscape:cy="8"
     inkscape:window-x="0"
     inkscape:window-y="28"
     inkscape:window-maximized="1"
     inkscape:current-layer="svg3778">
    <inkscape:grid
       type="xygrid"
       id="grid2984"
       empspacing="5"
       visible="true"
       enabled="true"
       snapvisiblegridlinesonly="true" />
  </sodipodi:namedview>
  <defs
     id="defs3780" />
  <metadata
     id="metadata3783">
    <rdf:RDF>
      <cc:Work
         rdf:about="">
        <dc:format>image/svg+xml</dc:format>
        <dc:type
           rdf:resource="http://purl.org/dc/dcmitype/StillImage" />
        <dc:title></dc:title>
      </cc:Work>
    </rdf:RDF>
  </metadata>
  <g
     id="layer1"
     transform="translate(23.134426,0)">
    <path
       d="M 19.015625,15 18.984375,16 21,16 21,15 z M 15,5 l 0,11 1.984375,0 0.03125,-11 z M 0.46875,8 0,9 3,12 3,16 4,16 4,12 7,9 6.625,8 z M 1.375,9 3,9 3,10.625 z M 4,9 5.625,9 4,10.625 z m 7.015625,0 -0.03125,7 L 13,16 13,9 z M 7,13 l 0,3 2,0 0,-3 z"
       id="path3883"
       style="color:#bebebe;fill:#bebebe;fill-opacity:1;fill-rule:nonzero;stroke:none;stroke-width:1;marker:none;visibility:visible;display:inline;overflow:visible;enable-background:accumulate"
       inkscape:connector-curvature="0" />
  </g>
  <path
     style="color:#000000;fill:#b3bcba;fill-opacity:1;fill-rule:nonzero;stroke:none;stroke-width:1;marker:none;visibility:visible;display:inline;overflow:visible;enable-background:accumulate"
     d="M 5 3 L 5 7 L 7 7 L 7 8 L 1 8 L 1 9 L 4 9 L 4 10 L 2 10 L 2 14 L 7 14 L 7 10 L 5 10 L 5 9 L 10 9 L 10 10 L 8 10 L 8 14 L 13 14 L 13 10 L 11 10 L 11 9 L 14 9 L 14 8 L 8 8 L 8 7 L 10 7 L 10 3 L 5 3 z M 6 4 L 9 4 L 9 6 L 6 6 L 6 4 z M 3 11 L 6 11 L 6 13 L 3 13 L 3 11 z M 9 11 L 12 11 L 12 13 L 9 13 L 9 11 z "
     id="rect2986" />
</svg>
